X: 2234
T: Avonmore, The
R: reel
M: 4/4
K: Gmajor
(dc)|BG (3GGG G2G2|BGBd gdec|BG (3GGG G2 (cB)|AGFG ABcA|
BG (3GGG G2G2|BGBd g2 (fg)|afge fdec|AGFG ABcA||
Bd (3ddd d2 (dc)|BGBd gdec|Be (3ddd d2 (cB)|AGFG ABcA|
Bd (3ddd d2 (dc)|BGBd g2 (fg)|afge fdec|AGFG ABcA||

